X:1
L:1/8
Q:1/8=180
M:2/2
K:G
""^simplified version"" (3def | gG G2 EGDG | EGDG EGAB | cBAG FGAB | cBAB cdef | gG G2 EGDG | 
 Aaaf gfed | cBAG FGAc | BGAF G2 || Bd |: g2 dg egdg | agbg agef | g2 dg egdg | agba g2 ga | 
 bgaf gfed | Bdef gedc | Bdef gfge |1 Bgba gfef :|2 dBcA G4 |]
